projects/Dont use/res/luts/warm.cube
# Created by: G'MIC (https://gmic.eu)
TITLE "output"
# LUT size
LUT_3D_SIZE 32
# Data domain
DOMAIN_MIN 0.0 0.0 0.0
DOMAIN_MAX 1.0 1.0 1.0
# LUT data points
0.90321773290634155 0.31926563382148743 0.31934273242950439
0.90771126747131348 0.32078811526298523 0.32078811526298523
0.89961040019989014 0.3177432119846344 0.31778174638748169
0.89312386512756348 0.31502136588096619 0.31510338187217712
0.88283562660217285 0.31058117747306824 0.31062209606170654
0.87438273429870605 0.30657625198364258 0.30659818649291992
0.8850027322769165 0.31062206625938416 0.31058117747306824
0.88456225395202637 0.30990642309188843 0.30986869335174561
0.89902961254119873 0.31637933850288391 0.31632506847381592
0.89966338872909546 0.31637933850288391 0.31637933850288391
0.88085860013961792 0.30599650740623474 0.30599650740623474
0.86267256736755371 0.29478198289871216 0.29478198289871216
0.84721338748931885 0.2838432788848877 0.2838432788848877
0.83617705106735229 0.27431923151016235 0.27431553602218628
0.83409786224365234 0.26960515975952148 0.26959812641143799
0.83394902944564819 0.26563003659248352 0.26562362909317017
0.83624225854873657 0.26294609904289246 0.26294013857841492
0.83747613430023193 0.25887513160705566 0.25886967778205872
0.83822792768478394 0.25356656312942505 0.25356164574623108
0.83923786878585815 0.24740204215049744 0.24739773571491241
0.8410305380821228 0.24069179594516754 0.24068799614906311
0.84414798021316528 0.23394180834293365 0.23393845558166504
0.8500208854675293 0.22933827340602875 0.22933518886566162
0.85691064596176147 0.22487233579158783 0.22486945986747742
0.86447185277938843 0.21988622844219208 0.21988359093666077
0.87305039167404175 0.21494419872760773 0.21494176983833313
0.88279342651367188 0.21064563095569611 0.21064338088035583
0.89335811138153076 0.20600345730781555 0.20600135624408722
0.9048503041267395 0.20106758177280426 0.20106564462184906
0.91735410690307617 0.19592295587062836 0.1959211677312851
0.93092131614685059 0.19064131379127502 0.1906396746635437
0.94557821750640869 0.18528193235397339 0.18528042733669281
0.90980386734008789 0.32156857848167419 0.32156857848167419
0.90135633945465088 0.3188319206237793 0.31844663619995117
0.90162599086761475 0.3188704252243042 0.31852370500564575
0.90394973754882812 0.31949681043624878 0.31926563382148743
0.89851939678192139 0.31746354699134827 0.31700128316879272
0.88895726203918457 0.31362035870552063 0.31275713443756104
0.8859018087387085 0.31209781765937805 0.31096327304840088
0.88615286350250244 0.31177231669425964 0.31058117747306824
0.89569622278213501 0.31548953056335449 0.31471830606460571
0.88997256755828857 0.31251910328865051 0.31142863631248474
0.87604564428329468 0.30529314279556274 0.30340680480003357
0.86003166437149048 0.29617077112197876 0.29327830672264099
0.84614729881286621 0.28709688782691956 0.2831936776638031
0.84239029884338379 0.28268235921859741 0.27827993035316467
0.84190738201141357 0.27968171238899231 0.27494341135025024
0.84165161848068237 0.27639737725257874 0.27129191160202026
0.84323161840438843 0.27388334274291992 0.26849600672721863
0.84329217672348022 0.26974901556968689 0.26389783620834351
0.84292501211166382 0.26445797085762024 0.25801274180412292
0.84295761585235596 0.25842076539993286 0.25129741430282593
0.84393483400344849 0.25194591283798218 0.24409489333629608
0.84747320413589478 0.24680639803409576 0.23837912082672119
0.85316801071166992 0.24303141236305237 0.23417966067790985
0.85935938358306885 0.23867678642272949 0.22933518886566162
0.86632329225540161 0.23390506207942963 0.22402678430080414
0.87461292743682861 0.22980335354804993 0.21946398913860321
0.88383233547210693 0.22569537162780762 0.21489372849464417
0.89392107725143433 0.22123675048351288 0.20993331074714661
0.9050021767616272 0.21652382612228394 0.20468994975090027
0.91715633869171143 0.21163816750049591 0.1992543637752533
0.93042975664138794 0.20664694905281067 0.19370132684707642
0.94484221935272217 0.20160454511642456 0.18809130787849426
0.9076341986656189 0.3209807276725769 0.32082664966583252
0.89631617069244385 0.31766998767852783 0.31668242812156677
0.89387822151184082 0.31685775518417358 0.31563737988471985
0.89645755290985107 0.31748414039611816 0.31632506847381592
0.90146619081497192 0.31893852353096008 0.3181663453578949
0.89568513631820679 0.31685775518417358 0.31558310985565186
0.88796532154083252 0.31387338042259216 0.31187355518341064
0.87711155414581299 0.30950871109962463 0.30642354488372803
0.87965983152389526 0.30996611714363098 0.30695468187332153
0.87887632846832275 0.30900731682777405 0.30579069256782532
0.87265980243682861 0.30560103058815002 0.30158364772796631
0.86211735010147095 0.29992181062698364 0.29445263743400574
0.85072213411331177 0.29314696788787842 0.28593793511390686
0.84815680980682373 0.29002243280410767 0.2819695770740509
0.84678387641906738 0.28707602620124817 0.27827996015548706
0.84747928380966187 0.28491708636283875 0.27557814121246338
0.84823012351989746 0.28243446350097656 0.27246817946434021
0.8473781943321228 0.27841272950172424 0.26742956042289734
0.84616780281066895 0.27334949374198914 0.26108506321907043
0.84548759460449219 0.26765552163124084 0.25394940376281738
0.84640622138977051 0.26211154460906982 0.24700327217578888
0.85080403089523315 0.25876826047897339 0.24281464517116547
0.85586172342300415 0.25518709421157837 0.23832561075687408
0.86143767833709717 0.25103813409805298 0.23312456905841827
0.86806571483612061 0.24690216779708862 0.22794091701507568
0.87601590156555176 0.24337702989578247 0.22352202236652374
0.88474911451339722 0.23948588967323303 0.21864381432533264
0.89441496133804321 0.23528845608234406 0.21338160336017609
0.90513479709625244 0.23087687790393829 0.20785081386566162
0.91698479652404785 0.22632710635662079 0.2021467387676239
0.93000507354736328 0.22170040011405945 0.19634614884853363
0.94420909881591797 0.21704521775245667 0.19050981104373932
0.90546447038650513 0.3205084502696991 0.32008469104766846
0.89631617069244385 0.31817951798439026 0.31673669815063477
0.88196974992752075 0.3143036961555481 0.3110988438129425
0.88168543577194214 0.31398382782936096 0.31058117747306824
0.88478624820709229 0.31456702947616577 0.31140980124473572
0.88686901330947876 0.31484237313270569 0.31183642148971558
0.88701796531677246 0.31459799408912659 0.31145435571670532
0.88615298271179199 0.31393936276435852 0.31058117747306824
0.88721418380737305 0.31393936276435852 0.31058120727539062
0.88831996917724609 0.31393936276435852 0.31058117747306824
0.88418358564376831 0.31195858120918274 0.30774238705635071
0.87011432647705078 0.3058430552482605 0.29897481203079224
0.85757428407669067 0.29962632060050964 0.29005393385887146
0.84992754459381104 0.29482465982437134 0.28310620784759521
0.848335862159729 0.29221042990684509 0.27934372425079346
0.85019952058792114 0.29097753763198853 0.27757832407951355
0.85053962469100952 0.28869333863258362 0.27430307865142822
0.84924137592315674 0.28502354025840759 0.26903975009918213
0.84762865304946899 0.28044334053993225 0.26246896386146545
0.84668546915054321 0.2753804624080658 0.25520509481430054
0.84911119937896729 0.27187749743461609 0.2501850426197052
0.85347259044647217 0.26921802759170532 0.24636749923229218
0.85797661542892456 0.26588311791419983 0.24158017337322235
0.86309307813644409 0.26209595799446106 0.23614408075809479
0.86968827247619629 0.25890970230102539 0.23157179355621338
0.87719649076461792 0.25568085908889771 0.22693595290184021
0.88551580905914307 0.25208944082260132 0.22177939116954803
0.89482557773590088 0.24823731184005737 0.21624840795993805
0.90524452924728394 0.24420951306819916 0.21046507358551025
0.91684359312057495 0.24007464945316315 0.20452794432640076
0.92965692281723022 0.23588688671588898 0.19851471483707428
0.94368219375610352 0.23171061277389526 0.19251832365989685
0.9076341986656189 0.32113480567932129 0.32082661986351013
0.8954613208770752 0.31842610239982605 0.31637933850288391
0.87543374300003052 0.3139362633228302 0.30866250395774841
0.87093651294708252 0.31256562471389771 0.30642351508140564
0.87647181749343872 0.31349465250968933 0.30802282691001892
0.87714439630508423 0.31341999769210815 0.30774238705635071
0.87773597240447998 0.31319412589073181 0.30737581849098206
0.88690656423568726 0.31530195474624634 0.31096324324607849
0.88973283767700195 0.31574979424476624 0.31180134415626526
0.88383221626281738 0.3137378990650177 0.30830642580986023
0.88132929801940918 0.31249439716339111 0.30621400475502014
0.8719717264175415 0.30878326296806335 0.30001932382583618
0.86111277341842651 0.30409851670265198 0.29217430949211121
0.85125505924224854 0.29919984936714172 0.28395375609397888
0.84660875797271729 0.29578936100006104 0.27817434072494507
0.84927582740783691 0.2950359582901001 0.27689915895462036
0.84975737333297729 0.29311683773994446 0.27368155121803284
0.84861201047897339 0.2900250256061554 0.26849597692489624
0.84713655710220337 0.28615501523017883 0.2620028555393219
0.84737706184387207 0.28253874182701111 0.25594297051429749
0.85131984949111938 0.28064969182014465 0.25277578830718994
0.85527235269546509 0.27826011180877686 0.24876321852207184
0.85939311981201172 0.27528071403503418 0.24375982582569122
0.86447423696517944 0.27225276827812195 0.23867832124233246
0.87097060680389404 0.26972866058349609 0.23443979024887085
0.87810873985290527 0.2668319046497345 0.22957384586334229
0.88610517978668213 0.26362630724906921 0.22418902814388275
0.89513975381851196 0.26020431518554688 0.21844050288200378
0.90532815456390381 0.25664147734642029 0.21245516836643219
0.91673660278320312 0.25299760699272156 0.20633354783058167
0.92938685417175293 0.24934056401252747 0.20019024610519409
0.94319075345993042 0.24588310718536377 0.19438324868679047
0.90542596578598022 0.32081666588783264 0.32008469104766846
0.9013562798500061 0.3200262188911438 0.31856223940849304
0.88301932811737061 0.31658253073692322 0.3115229606628418
0.87472957372665405 0.31485500931739807 0.30789509415626526
0.88283568620681763 0.31619536876678467 0.31058117747306824
0.87138211727142334 0.31357121467590332 0.3052939772605896
0.87322747707366943 0.3136153519153595 0.30536830425262451
0.88606750965118408 0.31619533896446228 0.31062206625938416
0.89908379316329956 0.31900563836097717 0.31632506847381592
0.88840538263320923 0.31615087389945984 0.31062206625938416
0.87561804056167603 0.31247779726982117 0.30316683650016785
0.86926186084747314 0.3102041482925415 0.29848155379295349
0.86110925674438477 0.30707970261573792 0.29217085242271423
0.85232192277908325 0.3033507764339447 0.28463423252105713
0.84510236978530884 0.2996443510055542 0.27712580561637878
0.84490036964416504 0.29797372221946716 0.27368155121803284
0.84602606296539307 0.29650527238845825 0.27071681618690491
0.8455849289894104 0.29411035776138306 0.26587969064712524
0.84494924545288086 0.29116368293762207 0.25993078947067261
0.8481290340423584 0.28957477211952209 0.2567354142665863
0.85230356454849243 0.28818744421005249 0.25392967462539673
0.85607051849365234 0.28615850210189819 0.24982574582099915
0.86007010936737061 0.28367432951927185 0.24480272829532623
0.86556315422058105 0.28162646293640137 0.24066519737243652
0.87182247638702393 0.27949145436286926 0.2363448441028595
0.87871205806732178 0.27700752019882202 0.2313181608915329
0.88649320602416992 0.27426886558532715 0.22577559947967529
0.89534568786621094 0.2713550329208374 0.21987831592559814
0.90538287162780762 0.26833021640777588 0.21375609934329987
0.91666322946548462 0.26526439189910889 0.2075517326593399
0.92914468050003052 0.26236078143119812 0.20167720317840576
0.94278895854949951 0.25951558351516724 0.19591759145259857
0.90104812383651733 0.32037293910980225 0.31860074400901794
0.89540708065032959 0.3195309042930603 0.3164336085319519
0.88066506385803223 0.31730109453201294 0.31066656112670898
0.86975389719009399 0.31546854972839355 0.30592527985572815
0.86734658479690552 0.3148532509803772 0.30432352423667908
0.8585624098777771 0.31312510371208191 0.29989895224571228
0.8614039421081543 0.31323280930519104 0.30018502473831177
0.87614524364471436 0.31548216938972473 0.30606865882873535
0.89682608842849731 0.31908270716667175 0.31533429026603699
0.89966332912445068 0.31947663426399231 0.31637933850288391
0.88480836153030396 0.31627130508422852 0.30808147788047791
0.87011432647705078 0.31269234418869019 0.29897481203079224
0.85961896181106567 0.30969434976577759 0.29127493500709534
0.85199016332626343 0.30700632929801941 0.28442203998565674
0.8444254994392395 0.30396011471748352 0.27666386961936951
0.83992356061935425 0.30135476589202881 0.27000796794891357
0.83994001150131226 0.29975524544715881 0.26587972044944763
0.84066277742385864 0.29807785153388977 0.26162463426589966
0.84274941682815552 0.29658618569374084 0.25785860419273376
0.8477368950843811 0.29597985744476318 0.25632423162460327
0.85197317600250244 0.29488557577133179 0.2535419762134552
0.85580259561538696 0.29328387975692749 0.24946904182434082
0.86026698350906372 0.2915702760219574 0.2451205849647522
0.86606079339981079 0.29017451405525208 0.24157243967056274
0.8721967339515686 0.28844901919364929 0.2371818870306015
0.87897634506225586 0.28644508123397827 0.23208244144916534
0.88666278123855591 0.28423935174942017 0.22646899521350861
0.89543551206588745 0.28189617395401001 0.2205052524805069
0.90540742874145508 0.27948436141014099 0.21436838805675507
0.91660165786743164 0.27718991041183472 0.20853281021118164
0.92896950244903564 0.27492591738700867 0.20276893675327301
0.94249707460403442 0.27266606688499451 0.19701869785785675
0.90538740158081055 0.32112488150596619 0.32008469104766846
0.90561860799789429 0.32112488150596619 0.32008469104766846
0.88301926851272583 0.31864070892333984 0.31154751777648926
0.86110657453536987 0.316062331199646 0.30259621143341064
0.85274368524551392 0.31488075852394104 0.29841569066047668
0.84244054555892944 0.31331944465637207 0.29308131337165833
0.84906941652297974 0.31379446387290955 0.29478073120117188
0.87041288614273071 0.31631568074226379 0.30343154072761536
0.88721424341201782 0.3184477686882019 0.31066656112670898
0.89009296894073486 0.31870931386947632 0.3115229606628418
0.88186043500900269 0.31722229719161987 0.30650234222412109
0.87180262804031372 0.31528505682945251 0.29992443323135376
0.8592037558555603 0.31268545985221863 0.29103296995162964
0.84849464893341064 0.31012257933616638 0.28218856453895569
0.84145659208297729 0.30792167782783508 0.27463254332542419
0.83715540170669556 0.3059755265712738 0.26796606183052063
0.83378112316131592 0.30394133925437927 0.2609717845916748
0.83558773994445801 0.30285951495170593 0.25723499059677124
0.84027236700057983 0.30235111713409424 0.25551256537437439
0.84582579135894775 0.30200281739234924 0.25432050228118896
0.85035896301269531 0.3012222945690155 0.25164875388145447
0.8545534610748291 0.30009868741035461 0.24780729413032532
0.86000227928161621 0.29919123649597168 0.24471415579319
0.86589395999908447 0.29818546772003174 0.24126827716827393
0.87207132577896118 0.2969110906124115 0.23690147697925568
0.87888795137405396 0.29543033242225647 0.2318265289068222
0.88660603761672974 0.29379954934120178 0.22623693943023682
0.89541167020797729 0.29208028316497803 0.22034652531147003
0.905417799949646 0.29043018817901611 0.21469779312610626
0.91657096147537231 0.28878402709960938 0.20905263721942902
0.9288860559463501 0.2871004045009613 0.20328131318092346
0.94215476512908936 0.28563785552978516 0.19828063249588013
0.90104806423187256 0.32098931074142456 0.31860074400901794
0.9077112078666687 0.32144305109977722 0.32082661986351013
0.89248186349868774 0.32029923796653748 0.31503710150718689
0.86931693553924561 0.31854605674743652 0.30579230189323425
0.84820395708084106 0.31677377223968506 0.29661497473716736
0.8385738730430603 0.3157978355884552 0.29149174690246582
0.83762866258621216 0.31554806232452393 0.28974524140357971
0.8537634015083313 0.31670978665351868 0.29573521018028259
0.86517614126205444 0.31752949953079224 0.2999805212020874
0.86892443895339966 0.31767728924751282 0.30075022578239441
0.86957687139511108 0.31751087307929993 0.29992440342903137
0.864310622215271 0.31669390201568604 0.29568716883659363
0.85419005155563354 0.31522285938262939 0.28802162408828735
0.8435397744178772 0.31350189447402954 0.27902278304100037
0.83565783500671387 0.31191849708557129 0.27066212892532349
0.83229470252990723 0.31072705984115601 0.26439100503921509
0.82954061031341553 0.30942925810813904 0.25759550929069519
0.8304373025894165 0.30852365493774414 0.25278064608573914
0.83658969402313232 0.30837476253509521 0.25202149152755737
0.8425745964050293 0.30816274881362915 0.2509114146232605
0.84760147333145142 0.30768594145774841 0.24841395020484924
0.85277223587036133 0.30711475014686584 0.24544847011566162
0.85896635055541992 0.30666899681091309 0.24311983585357666
0.86507385969161987 0.30603089928627014 0.23977309465408325
0.87145370244979858 0.30522015690803528 0.23552034795284271
0.87845122814178467 0.30427554249763489 0.23056401312351227
0.8863379955291748 0.30324181914329529 0.225145623087883
0.89534056186676025 0.3022342324256897 0.21987305581569672
0.90540987253189087 0.30121248960494995 0.2145073264837265
0.91657757759094238 0.30014798045158386 0.2089211642742157
0.92882341146469116 0.29913797974586487 0.20363461971282959
0.94182312488555908 0.29835513234138489 0.19953751564025879
0.89793777465820312 0.32122921943664551 0.31751716136932373
0.90980386734008789 0.32156857848167419 0.32156857848167419
0.90577280521392822 0.32139453291893005 0.32004618644714355
0.88565081357955933 0.32069018483161926 0.31216299533843994
0.87056583166122437 0.3200916051864624 0.30569323897361755
0.85868829488754272 0.31959614157676697 0.29998487234115601
0.8431316614151001 0.31890079379081726 0.29216012358665466
0.83626192808151245 0.3185737133026123 0.28763416409492493
0.84255772829055786 0.31873983144760132 0.28902578353881836
0.84856885671615601 0.31885677576065063 0.29038110375404358
0.85297507047653198 0.31891414523124695 0.29103294014930725
0.8507733941078186 0.31863948702812195 0.28802165389060974
0.84418588876724243 0.31809413433074951 0.28200972080230713
0.83645731210708618 0.31741189956665039 0.27448785305023193
0.83115172386169434 0.31678584218025208 0.26756662130355835
0.82781434059143066 0.31620293855667114 0.26108512282371521
0.8257448673248291 0.31561514735221863 0.25457146763801575
0.82704424858093262 0.3151848316192627 0.24982576072216034
0.831717848777771 0.31500294804573059 0.24740153551101685
0.83824169635772705 0.31491073966026306 0.24636748433113098
0.84397274255752563 0.31471052765846252 0.24415703117847443
0.85055440664291382 0.31455627083778381 0.24249541759490967
0.85717743635177612 0.31436571478843689 0.24036619067192078
0.86365288496017456 0.31408083438873291 0.23718191683292389
0.87037950754165649 0.31371736526489258 0.23311792314052582
0.87770795822143555 0.3132958710193634 0.22841827571392059
0.88599056005477905 0.3128739595413208 0.22373786568641663
0.89519286155700684 0.31243711709976196 0.21884261071681976
0.90537101030349731 0.31196913123130798 0.21360941231250763
0.91659730672836304 0.31151303648948669 0.20852845907211304
0.92876404523849487 0.31110087037086487 0.20394901931285858
0.94162601232528687 0.31077376008033752 0.20028932392597198
0.8901822566986084 0.3216107189655304 0.31480026245117188
0.90558010339736938 0.32154867053031921 0.32008469104766846
0.90371865034103394 0.32161572575569153 0.31930416822433472
0.89924228191375732 0.32159167528152466 0.31751716136932373
0.89302122592926025 0.3216107189655304 0.31480026245117188
0.87721145153045654 0.32168677449226379 0.30780941247940063
0.8608739972114563 0.32178184390068054 0.29998484253883362
0.8462567925453186 0.32187566161155701 0.29222732782363892
0.83361470699310303 0.3219757080078125 0.28466224670410156
0.83044391870498657 0.32210630178451538 0.2811511754989624
0.8347020149230957 0.32212340831756592 0.28123709559440613
0.83489519357681274 0.32214647531509399 0.27902278304100037
0.83143514394760132 0.32219651341438293 0.27434292435646057
0.82787764072418213 0.32224628329277039 0.26898103952407837
0.82579368352890015 0.32229962944984436 0.26389783620834351
0.82377749681472778 0.32236415147781372 0.25811499357223511
0.82445311546325684 0.32240554690361023 0.2535419762134552
0.82688438892364502 0.32244753837585449 0.2496892511844635
0.82995069026947021 0.32249188423156738 0.24569894373416901
0.83389991521835327 0.32255694270133972 0.24180068075656891
0.84007406234741211 0.32259839773178101 0.23959031701087952
0.84763419628143311 0.32260805368423462 0.23860612511634827
0.85474550724029541 0.32263132929801941 0.23662245273590088
0.86171221733093262 0.32266631722450256 0.23364292085170746
0.8689308762550354 0.32270911335945129 0.22987981140613556
0.87686890363693237 0.32275062799453735 0.22599996626377106
0.88551038503646851 0.3228011429309845 0.22177395224571228
0.89493930339813232 0.32285603880882263 0.21707957983016968
0.90531891584396362 0.3229081928730011 0.21244585514068604
0.91664093732833862 0.32296320796012878 0.20775510370731354
0.92874914407730103 0.32300373911857605 0.20402815937995911
0.94158643484115601 0.32304754853248596 0.20044073462486267
0.87836813926696777 0.32287079095840454 0.31066656112670898
0.89831596612930298 0.32206273078918457 0.31747865676879883
0.89964890480041504 0.3219810426235199 0.31778174638748169
0.90391123294830322 0.32184690237045288 0.31934273242950439
0.90418088436126709 0.32184690237045288 0.31934273242950439
0.8937104344367981 0.32229992747306824 0.31480026245117188
0.87895721197128296 0.32305949926376343 0.30796211957931519
0.86327314376831055 0.32395905256271362 0.30006435513496399
0.84767687320709229 0.32494166493415833 0.29145431518554688
0.83384335041046143 0.3259204626083374 0.28285911679267883
0.82333910465240479 0.32681411504745483 0.27513033151626587
0.81917381286621094 0.32745197415351868 0.27010545134544373
0.81814295053482056 0.32787996530532837 0.26634156703948975
0.81845277547836304 0.32825255393981934 0.26294010877609253
0.81844943761825562 0.32871130108833313 0.25886961817741394
0.81902939081192017 0.32917886972427368 0.25462040305137634
0.8227115273475647 0.32944080233573914 0.25215873122215271
0.8266226053237915 0.32974299788475037 0.24946454167366028
0.82995069026947021 0.3301703929901123 0.24569897353649139
0.83369278907775879 0.33063444495201111 0.24157243967056274
0.83804947137832642 0.33113303780555725 0.23718191683292389
0.84420830011367798 0.33152031898498535 0.23403827846050262
0.85179674625396729 0.33174458146095276 0.23208245635032654
0.8593788743019104 0.3320472240447998 0.22938847541809082
0.86740118265151978 0.3323729932308197 0.22646313905715942
0.87585800886154175 0.33275625109672546 0.22307594120502472
0.88485503196716309 0.33320507407188416 0.21909722685813904
0.89464926719665527 0.33365628123283386 0.21507568657398224
0.90525054931640625 0.33413919806480408 0.21081307530403137
0.91669273376464844 0.33459568023681641 0.20673550665378571
0.92882621288299561 0.33495533466339111 0.20354843139648438
0.94170516729354858 0.33535924553871155 0.19998751580715179
0.86334758996963501 0.32501700520515442 0.30545106530189514
0.89172631502151489 0.32293027639389038 0.31510338187217712
0.90166449546813965 0.32229921221733093 0.31852370500564575
0.89999562501907349 0.32240483164787292 0.31774324178695679
0.90794241428375244 0.32175123691558838 0.32078811526298523
0.90255057811737061 0.32222217321395874 0.31856223940849304
0.89511293172836304 0.32293030619621277 0.31503713130950928
0.87697917222976685 0.32479280233383179 0.30636990070343018
0.86008119583129883 0.32670378684997559 0.29745262861251831
0.84565889835357666 0.32854250073432922 0.28888183832168579
0.83404052257537842 0.33025658130645752 0.28087970614433289
0.82456058263778687 0.3319147527217865 0.27316087484359741
0.81665164232254028 0.33357277512550354 0.26544573903083801
0.81190294027328491 0.33503431081771851 0.25875198841094971
0.81068110466003418 0.33618709444999695 0.25354981422424316
