projects/Dont use/res/luts/warm.cube
# Created by: G'MIC (https://gmic.eu)
TITLE "output"
# LUT size
LUT_3D_SIZE 5
# Data domain
# LUT data points
DOMAIN_MIN 0.000000 0.000000 0.000000
DOMAIN_MAX 0.903226 0.903226 0.903226
0.90321773290634155 0.31926563382148743 0.31934273242950439
0.88456225395202637 0.30990642309188843 0.30986869335174561
0.83409786224365234 0.26960515975952148 0.26959812641143799
0.84414798021316528 0.23394180834293365 0.23393845558166504
0.9048503041267395 0.20106758177280426 0.20106564462184906
0.90538740158081055 0.32112488150596619 0.32008469104766846
0.87041288614273071 0.31631568074226379 0.30343154072761536
0.84145659208297729 0.30792167782783508 0.27463254332542419
0.8545534610748291 0.30009868741035461 0.24780729413032532
0.905417799949646 0.29043018817901611 0.21469779312610626
0.83545345067977905 0.33240404725074768 0.29573518037796021
0.90090924501419067 0.32325863838195801 0.31751716136932373
0.81847643852233887 0.34768325090408325 0.25889691710472107
0.84015631675720215 0.36033514142036438 0.22861295938491821
0.90494412183761597 0.37071001529693604 0.20374840497970581
0.70993369817733765 0.39983659982681274 0.25207370519638062
0.79974269866943359 0.37880954146385193 0.27076005935668945
0.79280424118041992 0.41193917393684387 0.24131056666374207
0.82955950498580933 0.44205144047737122 0.21449767053127289
0.90423113107681274 0.47401571273803711 0.18611378967761993
0.56202876567840576 0.54342746734619141 0.20063294470310211
0.66568279266357422 0.5282483696937561 0.20890961587429047
0.72296816110610962 0.55659842491149902 0.19344809651374817
0.80954492092132568 0.56683856248855591 0.18783248960971832
0.90346455574035645 0.60361814498901367 0.16778391599655151
0.77771240472793579 0.27557817101478577 0.30819475650787354
0.8629302978515625 0.29998046159744263 0.31526347994804382
0.83406949043273926 0.26959803700447083 0.30648058652877808
0.85886281728744507 0.25354689359664917 0.30176559090614319
0.90553253889083862 0.21743161976337433 0.2912241518497467
0.83202540874481201 0.31368255615234375 0.31370171904563904
0.90090924501419067 0.32030299305915833 0.32039579749107361
0.90536296367645264 0.32068115472793579 0.32064265012741089
0.90163350105285645 0.31836241483688354 0.31832152605056763
0.90724653005599976 0.30327644944190979 0.30326545238494873
0.77969282865524292 0.34047889709472656 0.3083721399307251
0.86749827861785889 0.32976034283638 0.31583049893379211
0.87859600782394409 0.33054822683334351 0.31528356671333313
0.87744146585464478 0.33961299061775208 0.30893748998641968
0.90704768896102905 0.34959670901298523 0.3019484281539917
0.66174095869064331 0.41870465874671936 0.29640230536460876
0.75391167402267456 0.40259626507759094 0.30057120323181152
0.84097558259963989 0.37474068999290466 0.30775848031044006
0.86736577749252319 0.38536366820335388 0.30502477288246155
0.90552622079849243 0.43832716345787048 0.29130610823631287
0.55017966032028198 0.55097818374633789 0.28509601950645447
0.6669127345085144 0.52718198299407959 0.28887498378753662
0.76277214288711548 0.50653386116027832 0.2921675443649292
0.82955944538116455 0.51791638135910034 0.29036256670951843
0.90448135137557983 0.55806624889373779 0.2839559018611908
0.68526709079742432 0.24344687163829803 0.35417273640632629
0.75598365068435669 0.25056076049804688 0.35120335221290588
0.80271041393280029 0.24808028340339661 0.35223707556724548
0.83816981315612793 0.22600287199020386 0.36144384741783142
0.90534347295761108 0.21336738765239716 0.36669415235519409
0.81067770719528198 0.31150925159454346 0.33597981929779053
0.85195058584213257 0.31372672319412231 0.3327384889125824
0.84189939498901367 0.30795019865036011 0.34103795886039734
0.87364792823791504 0.30746841430664062 0.34172186255455017
0.90755653381347656 0.30550467967987061 0.34450823068618774
0.77044302225112915 0.34176889061927795 0.34176892042160034
0.90483582019805908 0.32250183820724487 0.32257887721061707
0.90758335590362549 0.32216504216194153 0.32224211096763611
0.9053606390953064 0.32408544421195984 0.32401543855667114
0.90941470861434937 0.3261471688747406 0.32610273361206055
0.72260230779647827 0.39485546946525574 0.3487134575843811
0.87048602104187012 0.34203499555587769 0.32907775044441223
0.86690908670425415 0.35472902655601501 0.33378806710243225
0.89041608572006226 0.35069778561592102 0.33228960633277893
0.90740460157394409 0.38804584741592407 0.34615516662597656
0.61805063486099243 0.50767213106155396 0.36386612057685852
0.75709301233291626 0.45086264610290527 0.35092204809188843
0.79368364810943604 0.46766746044158936 0.35474371910095215
0.84364694356918335 0.48341912031173706 0.35834532976150513
0.90606850385665894 0.48795104026794434 0.35935419797897339
0.57348859310150146 0.20458351075649261 0.45324873924255371
0.66179227828979492 0.20707745850086212 0.45042902231216431
0.73636871576309204 0.20262575149536133 0.45547822117805481
0.81010925769805908 0.18859575688838959 0.47125297784805298
0.90427613258361816 0.18771415948867798 0.47223186492919922
0.66564309597015381 0.2968049943447113 0.41717720031738281
0.75900906324386597 0.3012445867061615 0.39993980526924133
0.78619903326034546 0.29681909084320068 0.41700634360313416
0.83800286054611206 0.29362419247627258 0.42939132452011108
0.90585404634475708 0.29366773366928101 0.42921078205108643
0.66928523778915405 0.35643342137336731 0.41574651002883911
0.82243311405181885 0.33838507533073425 0.36700251698493958
0.86456114053726196 0.33446705341339111 0.35654717683792114
0.8713531494140625 0.3429073691368103 0.37933716177940369
0.90744847059249878 0.34537813067436218 0.385943204164505
0.67736607789993286 0.41254401206970215 0.41255921125411987
0.87754982709884644 0.33830782771110535 0.3383166491985321
0.90758335590362549 0.32324376702308655 0.32332083582878113
0.90866214036941528 0.32324376702308655 0.32332083582878113
0.90855669975280762 0.35705599188804626 0.35710817575454712
0.6247745156288147 0.50336462259292603 0.43313363194465637
0.80528020858764648 0.41004514694213867 0.37583807110786438
0.83659768104553223 0.41373136639595032 0.3780810534954071
0.87239086627960205 0.41307389736175537 0.37766152620315552
0.90760886669158936 0.4208139181137085 0.38242271542549133
0.47108295559883118 0.16898021101951599 0.60143178701400757
0.5891537070274353 0.17357094585895538 0.592998206615448
0.68345338106155396 0.16633568704128265 0.60626763105392456
0.78564953804016113 0.15598446130752563 0.6252589225769043
0.90299183130264282 0.15682691335678101 0.62372076511383057
0.53186714649200439 0.28325185179710388 0.56266480684280396
0.65077340602874756 0.28671115636825562 0.54085469245910645
0.73359405994415283 0.28632190823554993 0.54320955276489258
0.8098912239074707 0.28269854187965393 0.56600254774093628
0.904163658618927 0.28179430961608887 0.57176387310028076
0.55772519111633301 0.37260875105857849 0.54615312814712524
0.69179642200469971 0.36351051926612854 0.5061224102973938
0.79015344381332397 0.35575839877128601 0.47209355235099792
0.84032803773880005 0.360166996717453 0.49154067039489746
0.90538203716278076 0.36633056402206421 0.51859515905380249
0.5949709415435791 0.44479125738143921 0.52238917350769043
0.76363968849182129 0.39745670557022095 0.44530725479125977
0.8290705680847168 0.38383260369300842 0.42314383387565613
0.87442290782928467 0.37466895580291748 0.4082038402557373
0.9072907567024231 0.39056733250617981 0.43410873413085938
0.56965595483779907 0.53852325677871704 0.53852576017379761
0.76447004079818726 0.44456282258033752 0.44456282258033752
0.85446649789810181 0.39118799567222595 0.39118799567222595
0.88134247064590454 0.39118799567222595 0.39118799567222595
0.90961474180221558 0.32994583249092102 0.32994583249092102
